X:1
T:Bagpiper's Fiddle
T:Bagpipe Sounds on the Fiddle
N:From the playing of fiddler Byard Ray (1910-1988, Sodom Laurel, Madison
N:County, western North Carolina), learned from his grandfather.
M:C|
L:1/8
Q:"Moderately Quick"
R:Reel
D:Sounds Good Studio SGS 104101, Byard Ray - "Traditional Music of the
D:Southern Appalachians" (1981)
D: https://dla.acaweb.org/digital/collection/Warrren/id/400/rec/11
Z:Andrew Kuntz
K:A
(e2||:c'2ac' ba3)|c'2(ac' ba3)|c'2(ac' ba)e-f|e(cBc) A4:|
fa-a2- a4|af ((3ecB) A4|fa-a2- a3b|afec- A4|
fa-a2- a3b|afec B2 A2-||A2(c2[c2e2]) (ef|e)cBc A3B|
c2Ac (3BcB A2-|A2 c2B-A- A2|c2 Ac B2A2-|AcBc A4|
A2 Ac (3BcB A2-|A3c BA3||

